lib/brands/logos/backbone-js.svg

<svg xmlns="http://www.w3.org/2000/svg" fill="none" aria-hidden="true" viewBox="0 0 238 51"><g id="BackboneJS"><g id="Group"><g id="Vector"><path fill="#002A41" d="M50.5887 14.8587H56.6021C59.3113 14.8587 61.3007 15.3186 62.5704 16.2383C63.84 17.1581 64.4749 18.5477 64.4749 20.4072C64.4749 21.6768 64.0875 22.734 63.3127 23.5788C62.5379 24.4236 61.4057 24.9659 59.9161 25.2058V25.2958C61.6656 25.5558 62.9528 26.1081 63.7776 26.9529C64.6023 27.7976 65.0147 28.9748 65.0147 30.4844C65.0147 32.5038 64.3449 34.0584 63.0053 35.1481C61.6656 36.2378 59.7662 36.7827 57.3069 36.7827H50.5887V14.8587ZM52.1183 24.621H56.947C59.0064 24.621 60.5035 24.2786 61.4382 23.5938C62.3729 22.909 62.8403 21.8368 62.8403 20.3772C62.8403 18.9176 62.313 17.8579 61.2583 17.1981C60.2035 16.5383 58.6315 16.2084 56.5421 16.2083H52.1183V24.621ZM52.1183 25.9706V35.433H57.2769C61.3357 35.433 63.3652 33.7835 63.3652 30.4844C63.3652 27.4752 61.2258 25.9706 56.947 25.9706H52.1183Z"/><path fill="#002A41" d="M80.4005 29.0448H71.4929L68.4338 36.7827H66.7393L75.5568 14.7687H76.5315L85.1692 36.7827H83.4446L80.4005 29.0448ZM72.0478 27.6652H79.8906L76.9064 19.7623C76.6565 19.1425 76.3566 18.2828 76.0067 17.1831C75.7368 18.1428 75.4418 19.0126 75.1219 19.7923L72.0478 27.6652Z"/><path fill="#002A41" d="M97.6157 15.9234C94.8665 15.9234 92.7021 16.8032 91.1225 18.5627C89.543 20.3222 88.7532 22.7315 88.7532 25.7907C88.7532 28.9198 89.498 31.3492 90.9876 33.0787C92.4771 34.8082 94.6065 35.673 97.3758 35.673C99.2153 35.673 100.905 35.438 102.444 34.9682V36.3178C100.995 36.8276 99.1853 37.0826 97.0159 37.0826C93.9367 37.0826 91.5124 36.0878 89.7429 34.0984C87.9734 32.1089 87.0886 29.3297 87.0886 25.7607C87.0886 23.5313 87.511 21.5669 88.3558 19.8673C89.2005 18.1678 90.4152 16.8557 91.9998 15.9309C93.5843 15.0062 95.4263 14.5438 97.5258 14.5438C99.6651 14.5438 101.58 14.9437 103.269 15.7434L102.654 17.1231C101.055 16.3233 99.3752 15.9234 97.6157 15.9234Z"/><path fill="#002A41" d="M122.074 36.7827H120.199L111.787 25.2058L108.863 27.7851V36.7827H107.333V14.8587H108.863V26.2555L111.292 23.8262L119.885 14.8587H121.834L112.852 24.1261L122.074 36.7827Z"/><path fill="#002A41" d="M125.208 14.8587H131.221C133.931 14.8587 135.92 15.3186 137.19 16.2383C138.459 17.1581 139.094 18.5477 139.094 20.4072C139.094 21.6768 138.707 22.734 137.932 23.5788C137.157 24.4236 136.025 24.9659 134.536 25.2058V25.2958C136.285 25.5558 137.572 26.1081 138.397 26.9529C139.222 27.7976 139.634 28.9748 139.634 30.4844C139.634 32.5038 138.964 34.0584 137.625 35.1481C136.285 36.2378 134.386 36.7827 131.926 36.7827H125.208V14.8587ZM126.738 24.621H131.566C133.626 24.621 135.123 24.2786 136.058 23.5938C136.992 22.909 137.46 21.8368 137.46 20.3772C137.46 18.9176 136.932 17.8579 135.878 17.1981C134.823 16.5383 133.251 16.2084 131.161 16.2083H126.738V24.621ZM126.738 25.9706V35.433H131.896C135.955 35.433 137.985 33.7835 137.985 30.4844C137.985 27.4752 135.845 25.9706 131.566 25.9706H126.738Z"/><path fill="#002A41" d="M162.893 25.7907C162.893 29.2697 162.023 32.0215 160.283 34.0459C158.544 36.0704 156.145 37.0826 153.085 37.0826C150.036 37.0826 147.642 36.0704 145.902 34.0459C144.163 32.0215 143.293 29.2597 143.293 25.7607C143.293 22.2717 144.17 19.5249 145.925 17.5205C147.679 15.516 150.076 14.5138 153.115 14.5138C156.175 14.5138 158.569 15.521 160.298 17.5355C162.028 19.5499 162.893 22.3016 162.893 25.7907ZM144.958 25.7907C144.958 28.9298 145.657 31.3566 147.057 33.0712C148.457 34.7857 150.466 35.643 153.085 35.643C155.725 35.643 157.742 34.7932 159.136 33.0937C160.531 31.3941 161.228 28.9598 161.228 25.7907C161.228 22.6316 160.531 20.2097 159.136 18.5252C157.742 16.8407 155.735 15.9984 153.115 15.9984C150.506 15.9984 148.494 16.8482 147.08 18.5477C145.665 20.2472 144.958 22.6616 144.958 25.7907Z"/><path fill="#002A41" d="M183.857 36.7827H182.312L169.326 17.318H169.206C169.326 19.6374 169.386 21.3869 169.386 22.5666V36.7827H167.916V14.8587H169.446L182.417 34.2933H182.507C182.417 32.4938 182.372 30.7843 182.372 29.1648V14.8587H183.857V36.7827Z"/><path fill="#002A41" d="M202.032 36.7827H190.05V14.8587H202.032V16.2683H191.58V24.561H201.447V25.9706H191.58V35.373H202.032V36.7827Z"/><path fill="#002A41" d="M206.351 35.613C206.351 34.6333 206.751 34.1434 207.55 34.1434C208.37 34.1434 208.78 34.6333 208.78 35.613C208.78 36.5927 208.37 37.0826 207.55 37.0826C206.751 37.0826 206.351 36.5927 206.351 35.613Z"/><path fill="#002A41" d="M210.744 42.3161C209.825 42.3161 209.07 42.1812 208.48 41.9112V40.5916C209.26 40.7915 210.005 40.8915 210.714 40.8915C213.134 40.8915 214.343 39.5719 214.343 36.9326V14.8587H215.873V36.7827C215.873 40.4716 214.164 42.3161 210.744 42.3161Z"/><path fill="#002A41" d="M234.063 31.1292C234.063 32.9587 233.391 34.4083 232.046 35.478C230.701 36.5477 228.914 37.0826 226.685 37.0826C224.006 37.0826 221.951 36.7876 220.522 36.1978V34.6682C222.101 35.3381 224.116 35.673 226.565 35.673C228.365 35.673 229.792 35.2606 230.846 34.4358C231.901 33.611 232.428 32.5288 232.428 31.1892C232.428 30.3594 232.254 29.6721 231.904 29.1273C231.554 28.5824 230.984 28.0851 230.194 27.6352C229.404 27.1853 228.245 26.7005 226.715 26.1806C224.476 25.4108 222.929 24.5785 222.074 23.6838C221.219 22.789 220.792 21.5968 220.792 20.1072C220.792 18.4677 221.434 17.1306 222.719 16.0959C224.003 15.0612 225.655 14.5438 227.675 14.5438C229.734 14.5438 231.669 14.9337 233.478 15.7135L232.923 17.0331C231.104 16.2733 229.364 15.8934 227.705 15.8934C226.085 15.8934 224.796 16.2683 223.836 17.0181C222.876 17.7679 222.396 18.7876 222.396 20.0772C222.396 20.8871 222.544 21.5519 222.839 22.0717C223.134 22.5916 223.616 23.059 224.286 23.4738C224.956 23.8887 226.105 24.3861 227.735 24.9659C229.444 25.5558 230.729 26.1281 231.589 26.6829C232.448 27.2378 233.076 27.8676 233.471 28.5724C233.866 29.2772 234.063 30.1295 234.063 31.1292Z"/></g><g id="Group_2"><path id="Vector_2" fill="#002A41" d="M3.93692 5.00751V27.1998L20.4553 36.616V30.2153L9.40474 23.9161V14.0217L20.4553 20.321V14.4237L3.93692 5.00751Z"/><path id="Vector_3" fill="#0071B5" d="M36.9737 5.00751V27.1998L20.4553 36.616V30.2153L31.5059 23.9161V14.0217L20.4553 20.321V14.4237L36.9737 5.00751Z"/><path id="Vector_4" fill="#0071B5" d="M3.93692 46.042V23.8497L20.4553 14.4335V20.8342L9.40474 27.1335V36.5245L20.4553 30.2252V36.6258L3.93692 46.042Z"/><path id="Vector_5" fill="#002A41" d="M36.9737 46.042V23.8497L20.4553 14.4335V20.8342L31.5059 27.1335V36.5245L20.4553 30.2252V36.6258L36.9737 46.042Z"/></g></g></g></svg>

<svg xmlns="http://www.w3.org/2000/svg" fill="none" aria-hidden="true" viewBox="0 0 238 51"><path fill="#002A41" d="M50.589 14.859h6.013c2.71 0 4.699.46 5.968 1.38 1.27.92 1.905 2.309 1.905 4.168 0 1.27-.387 2.327-1.162 3.172-.775.845-1.907 1.387-3.397 1.627v.09c1.75.26 3.037.812 3.862 1.657.824.845 1.237 2.022 1.237 3.531 0 2.02-.67 3.574-2.01 4.664-1.34 1.09-3.239 1.635-5.698 1.635h-6.718V14.859Zm1.53 9.762h4.828c2.06 0 3.556-.342 4.491-1.027.935-.685 1.402-1.757 1.402-3.217 0-1.46-.527-2.52-1.582-3.179-1.054-.66-2.627-.99-4.716-.99h-4.424v8.413Zm0 1.35v9.462h5.158c4.059 0 6.088-1.65 6.088-4.949 0-3.009-2.14-4.513-6.418-4.513h-4.829ZM80.4 29.045h-8.907l-3.06 7.738H66.74l8.818-22.014h.975l8.637 22.014h-1.724L80.4 29.045Zm-8.352-1.38h7.843l-2.985-7.903c-.25-.62-.55-1.48-.9-2.579-.27.96-.564 1.83-.884 2.61l-3.074 7.872Zm25.568-11.742c-2.75 0-4.914.88-6.493 2.64-1.58 1.76-2.37 4.169-2.37 7.228 0 3.129.745 5.558 2.235 7.288 1.49 1.73 3.619 2.594 6.388 2.594 1.84 0 3.529-.235 5.068-.705v1.35c-1.449.51-3.259.765-5.428.765-3.08 0-5.504-.995-7.273-2.985-1.77-1.99-2.654-4.768-2.654-8.337 0-2.23.422-4.194 1.267-5.894.845-1.7 2.06-3.011 3.644-3.936 1.584-.925 3.426-1.387 5.526-1.387 2.14 0 4.054.4 5.743 1.2l-.615 1.38a11.12 11.12 0 0 0-5.038-1.2Zm24.458 20.86H120.2l-8.413-11.577-2.924 2.58v8.997h-1.53V14.859h1.53v11.397l2.429-2.43 8.593-8.967h1.949l-8.982 9.267 9.222 12.657Zm3.134-21.924h6.013c2.71 0 4.699.46 5.969 1.38 1.269.92 1.904 2.309 1.904 4.168 0 1.27-.387 2.327-1.162 3.172-.775.845-1.907 1.387-3.396 1.627v.09c1.749.26 3.036.812 3.861 1.657.825.845 1.237 2.022 1.237 3.531 0 2.02-.67 3.574-2.009 4.664-1.34 1.09-3.239 1.635-5.699 1.635h-6.718V14.859Zm1.53 9.762h4.828c2.06 0 3.557-.342 4.492-1.027.934-.685 1.402-1.757 1.402-3.217 0-1.46-.528-2.52-1.582-3.179-1.055-.66-2.627-.99-4.717-.99h-4.423v8.413Zm0 1.35v9.462h5.158c4.059 0 6.089-1.65 6.089-4.949 0-3.009-2.14-4.513-6.419-4.513h-4.828Zm36.155-.181c0 3.48-.87 6.231-2.61 8.256-1.739 2.024-4.138 3.037-7.198 3.037-3.049 0-5.443-1.013-7.183-3.037-1.739-2.025-2.609-4.786-2.609-8.285 0-3.49.877-6.236 2.632-8.24 1.754-2.005 4.151-3.007 7.19-3.007 3.06 0 5.454 1.007 7.183 3.021 1.73 2.015 2.595 4.767 2.595 8.256Zm-17.935 0c0 3.14.699 5.567 2.099 7.281 1.4 1.715 3.409 2.572 6.028 2.572 2.64 0 4.657-.85 6.051-2.55 1.395-1.699 2.092-4.133 2.092-7.302 0-3.16-.697-5.581-2.092-7.266-1.394-1.684-3.401-2.527-6.021-2.527-2.609 0-4.621.85-6.035 2.55-1.415 1.7-2.122 4.114-2.122 7.243Zm38.899 10.993h-1.545l-12.986-19.465h-.12c.12 2.32.18 4.069.18 5.248v14.217h-1.47V14.859h1.53l12.971 19.434h.09c-.09-1.8-.135-3.509-.135-5.128V14.859h1.485v21.924Zm18.175 0H190.05V14.859h11.982v1.41H191.58v8.292h9.867v1.41h-9.867v9.402h10.452v1.41Zm4.319-1.17c0-.98.4-1.47 1.199-1.47.82 0 1.23.49 1.23 1.47s-.41 1.47-1.23 1.47c-.799 0-1.199-.49-1.199-1.47Zm4.393 6.703c-.919 0-1.674-.135-2.264-.405v-1.32c.78.2 1.525.3 2.234.3 2.42 0 3.629-1.32 3.629-3.958V14.859h1.53v21.924c0 3.689-1.709 5.533-5.129 5.533Zm23.319-11.186c0 1.829-.672 3.278-2.017 4.348-1.345 1.07-3.132 1.605-5.361 1.605-2.679 0-4.734-.295-6.163-.885v-1.53c1.579.67 3.594 1.005 6.043 1.005 1.8 0 3.227-.413 4.281-1.237 1.055-.825 1.583-1.907 1.583-3.247 0-.83-.175-1.517-.525-2.062-.35-.545-.92-1.042-1.71-1.492-.79-.45-1.949-.935-3.479-1.455-2.239-.77-3.786-1.602-4.641-2.496-.855-.895-1.282-2.087-1.282-3.577 0-1.64.642-2.976 1.927-4.011 1.284-1.035 2.936-1.552 4.956-1.552 2.059 0 3.994.39 5.803 1.17l-.555 1.32c-1.819-.76-3.559-1.14-5.218-1.14-1.62 0-2.909.374-3.869 1.124-.96.75-1.44 1.77-1.44 3.06 0 .809.148 1.474.443 1.994.295.52.777.987 1.447 1.402.67.415 1.819.912 3.449 1.492 1.709.59 2.994 1.162 3.854 1.717.859.555 1.487 1.185 1.882 1.89.395.704.592 1.556.592 2.556ZM3.937 5.008V27.2l16.518 9.416v-6.4l-11.05-6.3v-9.894l11.05 6.299v-5.897L3.937 5.008Z"/><path fill="#0071B5" d="M36.974 5.008V27.2l-16.519 9.416v-6.4l11.05-6.3v-9.894l-11.05 6.299v-5.897l16.519-9.416Z"/><path fill="#0071B5" d="M3.937 46.042V23.85l16.518-9.417v6.401l-11.05 6.3v9.39l11.05-6.299v6.4L3.937 46.043Z"/><path fill="#002A41" d="M36.974 46.042V23.85l-16.519-9.417v6.401l11.05 6.3v9.39l-11.05-6.299v6.4l16.519 9.417Z"/></svg>
